assets/v1/icons/erb.svg

<svg xmlns="http://www.w3.org/2000/svg" width="16" height="16" viewBox="0 0 16 16">
  <g fill="none" fill-rule="evenodd">
    <polygon fill="#9AA7B0" fill-opacity=".8" points="7 1 3 5 7 5"/>
    <polygon fill="#9AA7B0" fill-opacity=".8" points="8 1 8 6 3 6 3 8 13 8 13 1"/>
    <polygon fill="#62B543" fill-opacity=".7" points="1 16 16 16 16 9 1 9"/>
    <path fill="#231F20" fill-opacity=".7" d="M3,15 L3,10 L5,10 C6.156,10 7.0002,10.6 7.0002,11.6133 C7.0002,12.6266 6.7103,13.1197 6.0216,13.3185 L7.2635,15 L6.1269,15 L4.9057,13.4 L4,13.4 L4,15 L3,15 Z M4,12.4685 L5.11133333,12.4685 C5.65465185,12.4685 6.0004,12.1810489 6.0004,11.7373745 L6.0004,11.7248766 C6.0004,11.2562064 5.667,11 5.10515926,11 L4,11 L4,12.4685 Z"/>
  </g>
</svg>

<svg xmlns="http://www.w3.org/2000/svg" width="16" height="16" viewBox="0 0 16 16"><g fill="none" fill-rule="evenodd"><path fill="#9AA7B0" fill-opacity=".8" d="M7 1 3 5h4z"/><path fill="#9AA7B0" fill-opacity=".8" d="M8 1v5H3v2h10V1z"/><path fill="#62B543" fill-opacity=".7" d="M1 16h15V9H1z"/><path fill="#231F20" fill-opacity=".7" d="M3 15v-5h2c1.156 0 2 .6 2 1.613 0 1.014-.29 1.507-.978 1.706L7.263 15H6.127l-1.221-1.6H4V15zm1-2.531h1.111c.544 0 .89-.288.89-.732v-.012c0-.469-.334-.725-.896-.725H4z"/></g></svg>
